X: 148
T:Muiñeira de Negros
M:6/8
L:1/8
Q:200
C:Trad
R:Muiñeira
K:C
c cBc |: AGA cG2 | E2 G G G2 | FEF AF2|
D2 c cBc | AGA cG2 | E2 G G G2 | FEF AG2|
C2 G G G2 | EEE E F2 | D2 G GG2| FEF AG2|
E2 G GG2 |  EEE E F2 | D2 G G G2| FEF AG2|
C2 GG2G| ECE GF2 | D2D DB,D | DB,D AG2|
E2E ECE | ECE GF2| D2D DEF |AGE GFD |1
C2 c cBc :|2 C6 | 

